assets/images/payment-method-icons/visa.svg

<svg fill="none" height="35" viewBox="0 0 51 35" width="51" xmlns="http://www.w3.org/2000/svg"><rect fill="#fff" height="34" rx="3.5" stroke="#f3f3f3" width="50" x=".5" y=".5"/><g fill="#15195a"><path d="m22.6435 24.004h-3.3955l2.1238-12.2506h3.3953z"/><path d="m34.952 12.0528c-.6697-.2479-1.732-.5216-3.0454-.5216-3.3532 0-5.7144 1.6681-5.7289 4.053-.0278 1.7595 1.6906 2.7368 2.9759 3.3235 1.3136.5995 1.7602.9908 1.7602 1.5252-.0134.8207-1.0616 1.199-2.0391 1.199-1.3556 0-2.082-.195-3.1858-.6516l-.4472-.1958-.4751 2.75c.7964.3385 2.2636.6388 3.7868.652 3.5628 0 5.8822-1.6423 5.9097-4.1837.0136-1.3946-.8938-2.4632-2.8501-3.3363-1.1876-.5606-1.9149-.9385-1.9149-1.5121.014-.5213.6152-1.0554 1.9558-1.0554 1.1038-.0261 1.9148.2214 2.5292.4691l.3071.1301z"/><path clip-rule="evenodd" d="m41.0301 11.7534h2.6264l2.7392 12.2505h-3.1438s-.3077-1.4076-.4052-1.8377h-4.3594c-.1261.3257-.7126 1.8377-.7126 1.8377h-3.5628l5.0435-11.234c.3495-.7951.9648-1.0165 1.7747-1.0165zm-.2093 4.4831s-1.076 2.7238-1.3556 3.4276h2.8223c-.1397-.6125-.7827-3.5449-.7827-3.5449l-.2372-1.0556c-.1.2719-.2445.6456-.342.8976-.066.1709-.1105.2859-.1048.2753z" fill-rule="evenodd"/><path clip-rule="evenodd" d="m4.53636 11.7534h5.46293c.74051.0258 1.34131.2474 1.53681 1.0298l1.1872 5.6281c.0001.0005.0003.0011.0005.0016l.3633 1.6943 3.3253-8.3538h3.5904l-5.3371 12.2376h-3.5905l-3.02639-10.6446c-1.0442-.5695-2.23592-1.0276-3.56834-1.3455z" fill-rule="evenodd"/></g></svg>

<svg
	width="51"
	height="35"
	viewBox="0 0 51 35"
	fill="none"
	xmlns="http://www.w3.org/2000/svg"
>
	<rect
		x="0.5"
		y="0.5"
		width="50"
		height="34"
		rx="3.5"
		fill="white"
		stroke="#F3F3F3"
	/>
	<path
		d="M22.6435 24.004H19.248L21.3718 11.7534H24.7671L22.6435 24.004Z"
		fill="#15195A"
	/>
	<path
		d="M34.952 12.0528C34.2823 11.8049 33.22 11.5312 31.9066 11.5312C28.5534 11.5312 26.1922 13.1993 26.1777 15.5842C26.1499 17.3437 27.8683 18.321 29.1536 18.9077C30.4672 19.5072 30.9138 19.8985 30.9138 20.4329C30.9004 21.2536 29.8522 21.6319 28.8747 21.6319C27.5191 21.6319 26.7927 21.4369 25.6889 20.9803L25.2417 20.7845L24.7666 23.5345C25.563 23.873 27.0302 24.1733 28.5534 24.1865C32.1162 24.1865 34.4356 22.5442 34.4631 20.0028C34.4767 18.6082 33.5693 17.5396 31.613 16.6665C30.4254 16.1059 29.6981 15.728 29.6981 15.1544C29.7121 14.6331 30.3133 14.099 31.6539 14.099C32.7577 14.0729 33.5687 14.3204 34.1831 14.5681L34.4902 14.6982L34.952 12.0528Z"
		fill="#15195A"
	/>
	<path
		fill-rule="evenodd"
		clip-rule="evenodd"
		d="M41.0301 11.7534H43.6565L46.3957 24.0039H43.2519C43.2519 24.0039 42.9442 22.5963 42.8467 22.1662H38.4873C38.3612 22.4919 37.7747 24.0039 37.7747 24.0039H34.2119L39.2554 12.7699C39.6049 11.9748 40.2202 11.7534 41.0301 11.7534ZM40.8208 16.2365C40.8208 16.2365 39.7448 18.9603 39.4652 19.6641H42.2875C42.1478 19.0516 41.5048 16.1192 41.5048 16.1192L41.2676 15.0636C41.1676 15.3355 41.0231 15.7092 40.9256 15.9612C40.8596 16.1321 40.8151 16.2471 40.8208 16.2365Z"
		fill="#15195A"
	/>
	<path
			fill-rule="evenodd"
		clip-rule="evenodd"
		d="M4.53636 11.7534H9.99929C10.7398 11.7792 11.3406 12.0008 11.5361 12.7832L12.7233 18.4113C12.7234 18.4118 12.7236 18.4124 12.7238 18.4129L13.0871 20.1072L16.4124 11.7534H20.0028L14.6657 23.991H11.0752L8.04881 13.3464C7.00461 12.7769 5.81289 12.3188 4.48047 12.0009L4.53636 11.7534Z"
		fill="#15195A"
	/>
</svg>
